Sources/FrostedUI/Resources/Icons.xcassets/table20.imageset/table-20.svg

<svg width="20" height="20" viewBox="0 0 20 20" fill="none" xmlns="http://www.w3.org/2000/svg" data-fui-icon="true">
  <path
    d="M15.7803 1.0498C17.4203 1.04995 18.7497 2.37955 18.75 4.01953V16.0801C18.7499 17.7201 17.4203 19.0497 15.7803 19.0498H4.21973C2.57966 19.0497 1.25015 17.7201 1.25 16.0801V4.01953C1.25025 2.37955 2.57972 1.04995 4.21973 1.0498H15.7803ZM8.25 17.5498H15.7803C16.5919 17.5497 17.2499 16.8917 17.25 16.0801V7.60938H8.25V17.5498ZM2.75 16.0801C2.75015 16.8917 3.40808 17.5497 4.21973 17.5498H6.75V7.60938H3C2.91197 7.60938 2.82848 7.59134 2.75 7.56348V16.0801ZM4.21973 2.5498C3.40815 2.54995 2.75025 3.20798 2.75 4.01953V6.1543C2.8284 6.1265 2.91207 6.10938 3 6.10938H6.75V2.5498H4.21973ZM8.25 6.10938H17.25V4.01953C17.2497 3.20798 16.5918 2.54995 15.7803 2.5498H8.25V6.10938Z"
    fill="currentColor"
  />
</svg>

<svg xmlns="http://www.w3.org/2000/svg" width="20" height="20" fill="none" data-fui-icon="true" viewBox="0 0 20 20"><path fill="currentColor" d="M15.78 1.05a2.97 2.97 0 0 1 2.97 2.97v12.06a2.97 2.97 0 0 1-2.97 2.97H4.22a2.97 2.97 0 0 1-2.97-2.97V4.02a2.97 2.97 0 0 1 2.97-2.97zm-7.53 16.5h7.53a1.47 1.47 0 0 0 1.47-1.47V7.61h-9zm-5.5-1.47c0 .812.658 1.47 1.47 1.47h2.53V7.61H3a.8.8 0 0 1-.25-.047zM4.22 2.55a1.47 1.47 0 0 0-1.47 1.47v2.134A.8.8 0 0 1 3 6.11h3.75V2.55zm4.03 3.56h9V4.02a1.47 1.47 0 0 0-1.47-1.47H8.25z"/></svg>
